X: 4193
T: Blue-Eyed Lass, The
R: reel
M: 4/4
K: Dmajor
fe|:d3A BAFB|ABde fdef|gfeg fedf|edcB A2Bc|
d3A BAFB|ABde fdef|~g3f gbag|1 faea d2fe:|2 faea d2ef||
|:~g3a gfef|gfed cABc|defd gfed|ceBe A2AG|
FAdA GBdB|Acec defg|~a3f gbag|1 faea d2ef:|2 faea d2fe||

